packages/bezier-icons/icons/auto-writing.svg

<svg width="24" height="24" viewBox="0 0 24 24" fill="none" xmlns="http://www.w3.org/2000/svg">
<path fill-rule="evenodd" clip-rule="evenodd" d="M7.27918 11.8159C7.17399 12.0614 6.82601 12.0614 6.72082 11.8159L5.3598 8.6402L2.18409 7.27918C1.93864 7.17399 1.93864 6.82601 2.18409 6.72082L5.3598 5.3598L6.72082 2.18409C6.82601 1.93864 7.17399 1.93864 7.27918 2.18409L8.6402 5.3598L11.8159 6.72082C12.0614 6.82601 12.0614 7.17399 11.8159 7.27918L8.6402 8.6402L7.27918 11.8159ZM19.6779 8.73642L18.4139 10.0004L16.9999 8.58642L18.2629 7.32242C18.5179 7.06742 18.8159 7.02942 18.9699 7.02942C19.1249 7.02942 19.4229 7.06742 19.6779 7.32242C20.0679 7.71242 20.0679 8.34642 19.6779 8.73642ZM6.99988 20.0004V18.5854L15.5 10L17 11.5L8.41388 20.0004H6.99988ZM21.0919 5.90842C20.5059 5.32242 19.7389 5.02942 18.9699 5.02942C18.2029 5.02942 17.4349 5.32242 16.8489 5.90842L4.99988 17.7574V22.0004H9.24288L21.0919 10.1514C22.2629 8.97942 22.2629 7.07942 21.0919 5.90842ZM19.3259 20.7851C19.2031 21.0716 18.7969 21.0716 18.6741 20.7851L17.9363 19.0637L16.2149 18.3259C15.9284 18.2031 15.9284 17.7969 16.2149 17.6741L17.9363 16.9363L18.6741 15.2149C18.7969 14.9284 19.2031 14.9284 19.3259 15.2149L20.0637 16.9363L21.7851 17.6741C22.0716 17.7969 22.0716 18.2031 21.7851 18.3259L20.0637 19.0637L19.3259 20.7851Z" fill="#313234"/>
</svg>

<svg xmlns="http://www.w3.org/2000/svg" width="24" height="24" fill="none" viewBox="0 0 24 24"><path fill="#313234" fill-rule="evenodd" d="M7.28 11.816a.304.304 0 0 1-.56 0L5.36 8.64 2.184 7.28a.304.304 0 0 1 0-.56L5.36 5.36l1.36-3.176a.304.304 0 0 1 .56 0L8.64 5.36l3.176 1.36a.304.304 0 0 1 0 .56L8.64 8.64zm12.398-3.08L18.414 10 17 8.586l1.263-1.264a.997.997 0 0 1 1.415 0 1 1 0 0 1 0 1.414M7 20v-1.415L15.5 10l1.5 1.5L8.414 20zM21.092 5.908a3 3 0 0 0-2.122-.879c-.767 0-1.535.293-2.121.88L4.999 17.756V22h4.244l11.849-11.849a3 3 0 0 0 0-4.243m-1.766 14.877a.355.355 0 0 1-.652 0l-.738-1.721-1.721-.738a.355.355 0 0 1 0-.652l1.721-.738.738-1.721a.355.355 0 0 1 .652 0l.738 1.721 1.721.738a.355.355 0 0 1 0 .652l-1.721.738z" clip-rule="evenodd"/></svg>
